16x16/apps/hdspconf.svg

<svg xmlns="http://www.w3.org/2000/svg" width="16" height="16" version="1">
 <path style="fill:#69787e" d="m 4.4030515,4.4030777 -0.8054411,0.900459 6.5473856,6.3043163 c 0.547989,1.672223 1.640955,2.866892 2.785345,4.017262 0.413968,0.447456 0.428403,0.519565 0.868971,0.079 l 0.952387,-0.952387 0.952388,-0.952387 c 0.440568,-0.440568 0.368459,-0.455003 -0.079,-0.86897 -1.15037,-1.144392 -2.345591,-2.236805 -4.017814,-2.784794 L 5.3035105,3.5976366 Z"/>
 <path style="fill:#394f63" d="M 4.4027951,4.4029537 5.3031853,3.5977994 11.607208,10.145213 c 1.672223,0.547989 2.867513,1.641043 4.017883,2.785434 0.447457,0.413968 0.519567,0.428045 0.079,0.868613 l -0.952616,0.952372 z"/>
 <rect style="fill:#f2654f" width="10.323" height="3.441" x="-5.16" y="4.64" rx=".886" ry=".886" transform="rotate(-45)"/>
 <path style="fill:#69787e" d="M 7.7151979,0.41708276 0.41708121,7.7151994 1.2848014,8.5829196 8.582918,1.2848029 Z"/>
 <path style="fill:#4b565a" d="M 4.5664062 2 L 2 4.5664062 L 2 7 L 4.4335938 7 L 7 4.4335938 L 7 2 L 4.5664062 2 z"/>
 <path style="fill:#40c900" d="M 6.2105801,2.5195919 5.9301164,2.8000564 6.2105801,3.08052 6.4910446,2.8000564 Z M 5.6496519,3.08052 5.3691882,3.3609845 5.6496519,3.6414482 5.9301164,3.3609845 Z M 5.0887241,3.6414482 4.8082605,3.9219123 5.0887241,4.202376 5.3691882,3.9219123 Z M 4.527796,4.202376 4.2473323,4.4828405 4.527796,4.7633041 4.8082605,4.4828405 Z M 3.9668678,4.7633041 3.6856288,5.0437687 3.9668678,5.3250076 4.2473323,5.0437687 Z M 3.4051651,5.3250076 3.1247007,5.6054713 3.4051651,5.8859358 3.6856288,5.6054713 Z M 2.8442374,5.8859358 2.5637725,6.166399 2.8442374,6.4468639 3.1247007,6.166399 Z"/>
</svg>

<svg xmlns="http://www.w3.org/2000/svg" width="16" height="16" version="1"><path style="fill:#69787e" d="m4.403 4.403-.805.9 6.547 6.305c.548 1.672 1.641 2.867 2.785 4.017.414.448.429.52.87.08l.952-.953.952-.953c.44-.44.369-.455-.079-.869-1.15-1.144-2.346-2.236-4.018-2.784L5.304 3.598z"/><path style="fill:#394f63" d="m4.403 4.403.9-.805 6.304 6.547c1.672.548 2.868 1.641 4.018 2.786.448.414.52.428.08.868l-.954.953z"/><rect style="fill:#f2654f" width="10.323" height="3.441" x="-5.16" y="4.64" rx=".886" ry=".886" transform="rotate(-45)"/><path style="fill:#69787e" d="M7.715.417.417 7.715l.868.868 7.298-7.298z"/><path style="fill:#4b565a" d="M4.566 2 2 4.566V7h2.434L7 4.434V2H4.566z"/><path style="fill:#40c900" d="m6.21 2.52-.28.28.28.28.281-.28zm-.56.56-.28.281.28.28.28-.28zm-.561.561-.28.28.28.281.28-.28zm-.561.561-.28.28.28.281.28-.28zm-.561.561-.281.28.28.282.281-.281zm-.562.562-.28.28.28.28.28-.28zm-.56.56-.281.281.28.28.28-.28z"/></svg>
